packages/dnb-eufemia/assets/icons/coins_3_medium.svg

<svg width="24" height="24" viewBox="0 0 24 24" fill="none" xmlns="http://www.w3.org/2000/svg">
<path d="M21.75 7.5V10.5M20.25 9H23.25M2.25 0.75V3.75M0.75 2.25H3.75M7.5 18.75H18C18.4142 18.75 18.75 19.0858 18.75 19.5V22.5C18.75 22.9142 18.4142 23.25 18 23.25H7.5C7.08579 23.25 6.75 22.9142 6.75 22.5V19.5C6.75 19.0858 7.08579 18.75 7.5 18.75ZM9 14.25H19.5C19.9142 14.25 20.25 14.5858 20.25 15V18C20.25 18.4142 19.9142 18.75 19.5 18.75H9C8.58579 18.75 8.25 18.4142 8.25 18V15C8.25 14.5858 8.58579 14.25 9 14.25ZM4.5 9.75H15C15.4142 9.75 15.75 10.0858 15.75 10.5V13.5C15.75 13.9142 15.4142 14.25 15 14.25H4.5C4.08579 14.25 3.75 13.9142 3.75 13.5V10.5C3.75 10.0858 4.08579 9.75 4.5 9.75ZM6 5.25H16.5C16.9142 5.25 17.25 5.58579 17.25 6V9C17.25 9.41421 16.9142 9.75 16.5 9.75H6C5.58579 9.75 5.25 9.41421 5.25 9V6C5.25 5.58579 5.58579 5.25 6 5.25Z" stroke="black" stroke-width="1.5" stroke-linecap="round" stroke-linejoin="round"/>
</svg>

<svg width="24" height="24" viewBox="0 0 24 24" fill="none" xmlns="http://www.w3.org/2000/svg"><path d="M21.75 7.5v3M20.25 9h3M2.25.75v3m-1.5-1.5h3m3.75 16.5H18a.75.75 0 0 1 .75.75v3a.75.75 0 0 1-.75.75H7.5a.75.75 0 0 1-.75-.75v-3a.75.75 0 0 1 .75-.75Zm1.5-4.5h10.5a.75.75 0 0 1 .75.75v3a.75.75 0 0 1-.75.75H9a.75.75 0 0 1-.75-.75v-3a.75.75 0 0 1 .75-.75Zm-4.5-4.5H15a.75.75 0 0 1 .75.75v3a.75.75 0 0 1-.75.75H4.5a.75.75 0 0 1-.75-.75v-3a.75.75 0 0 1 .75-.75ZM6 5.25h10.5a.75.75 0 0 1 .75.75v3a.75.75 0 0 1-.75.75H6A.75.75 0 0 1 5.25 9V6A.75.75 0 0 1 6 5.25Z" stroke="#000" stroke-width="1.5" stroke-linecap="round" stroke-linejoin="round"/></svg>
